build/images/pin-p.svg

<?xml version="1.0" encoding="UTF-8"?>
<svg width="18px" height="24px" viewBox="0 0 18 24" version="1.1" xmlns="http://www.w3.org/2000/svg" xmlns:xlink="http://www.w3.org/1999/xlink">
    <!-- Generator: sketchtool 63.1 (101010) - https://sketch.com -->
    <title>8EA87190-680D-4BE7-A38C-12AA592CE4FF</title>
    <desc>Created with sketchtool.</desc>
    <g id="Page-1" stroke="none" stroke-width="1" fill="none" fill-rule="evenodd">
        <g id="Kupa-shop---design" transform="translate(-379.000000, -1355.000000)" fill="#333333" fill-rule="nonzero">
            <g id="projects" transform="translate(359.000000, 895.000000)">
                <g id="pin" transform="translate(20.000000, 460.000000)">
                    <path d="M17.5624508,6.28895086 C16.7201291,3.52464045 14.5320678,1.28378277 11.8521716,0.440736528 C8.99839329,-0.45696592 6.02324834,0.0303462128 3.6896855,1.77770427 C2.57154305,2.61493801 1.64371094,3.7192653 1.00655894,4.97115498 C0.348040874,6.26504463 0,7.72173103 0,9.18380806 C0,11.1782441 0.62109283,13.0735864 1.79618071,14.6649445 L9.00093137,24 L16.1967295,14.6768508 L16.2057282,14.6649445 C17.9642068,12.2832745 18.4587645,9.23030802 17.5624508,6.28895086 Z M15.1021682,13.8151952 L9.00093137,21.7209861 L2.89964841,13.8151952 C1.90864102,12.4703993 1.38477997,10.8690099 1.38477997,9.18380806 C1.38477997,6.72132554 2.55359186,4.37593668 4.51137946,2.90996904 C6.48711825,1.43054828 9.01343722,1.02034547 11.4425705,1.78440739 C13.6923304,2.49212561 15.5304587,4.37753043 16.2396924,6.70482555 C17.0024104,9.20804241 16.5877794,11.7992905 15.1021682,13.8151952 Z" id="Shape"></path>
                    <path d="M9.2195122,4.44444444 C6.55666913,4.44444444 4.3902439,6.63761566 4.3902439,9.33333333 C4.3902439,12.029051 6.55666913,14.2222222 9.2195122,14.2222222 C11.8823553,14.2222222 14.0487805,12.029051 14.0487805,9.33333333 C14.0487805,6.63761566 11.8823553,4.44444444 9.2195122,4.44444444 Z M9.2195122,12.8254168 C7.31748143,12.8254168 5.77001514,11.2588925 5.77001514,9.33333333 C5.77001514,7.40782071 7.31743545,5.84124989 9.2195122,5.84124989 C11.1215889,5.84124989 12.6690093,7.40777416 12.6690093,9.33333333 C12.6690093,11.258846 11.121543,12.8254168 9.2195122,12.8254168 Z" id="Shape"></path>
                </g>
            </g>
        </g>
    </g>
</svg>

<svg width="18" height="24" xmlns="http://www.w3.org/2000/svg"><g id="Page-1" stroke="none" stroke-width="1" fill="none" fill-rule="evenodd"><g id="Kupa-shop---design" transform="translate(-379 -1355)" fill="#333" fill-rule="nonzero"><g id="projects" transform="translate(359 895)"><g id="pin" transform="translate(20 460)"><path d="M17.562 6.289c-.842-2.764-3.03-5.005-5.71-5.848C8.998-.457 6.023.03 3.69 1.778A9.251 9.251 0 001.007 4.97 9.329 9.329 0 000 9.184a9.16 9.16 0 001.796 5.48L9.001 24l7.196-9.323.009-.012c1.758-2.382 2.253-5.435 1.356-8.376zm-2.46 7.526l-6.101 7.906L2.9 13.815a7.75 7.75 0 01-1.515-4.631A7.868 7.868 0 014.51 2.91c1.976-1.48 4.502-1.89 6.932-1.126 2.25.708 4.087 2.594 4.797 4.92.762 2.504.348 5.095-1.138 7.111z" id="Shape"/><path d="M9.22 4.444c-2.663 0-4.83 2.194-4.83 4.89 0 2.695 2.167 4.888 4.83 4.888 2.662 0 4.829-2.193 4.829-4.889 0-2.695-2.167-4.889-4.83-4.889zm0 8.381c-1.903 0-3.45-1.566-3.45-3.492 0-1.925 1.547-3.492 3.45-3.492 1.902 0 3.449 1.567 3.449 3.492 0 1.926-1.547 3.492-3.45 3.492z" id="Shape"/></g></g></g></g></svg>
